vendor/shopware/storefront/Resources/app/storefront/dist/assets/icon/solid/circle-x-small.svg

<svg xmlns="http://www.w3.org/2000/svg" width="16" height="16" viewBox="0 0 16 16">
  <path fill="#758CA3" fill-rule="evenodd" d="M8,11 C6.34314575,11 5,9.65685425 5,8 C5,6.34314575 6.34314575,5 8,5 C9.65685425,5 11,6.34314575 11,8 C11,9.65685425 9.65685425,11 8,11 Z M8,9 C8.55228475,9 9,8.55228475 9,8 C9,7.44771525 8.55228475,7 8,7 C7.44771525,7 7,7.44771525 7,8 C7,8.55228475 7.44771525,9 8,9 Z"/>
</svg>

<svg xmlns="http://www.w3.org/2000/svg" width="16" height="16" viewBox="0 0 16 16"><path fill="#758CA3" fill-rule="evenodd" d="M8 11c-1.6569 0-3-1.3431-3-3s1.3431-3 3-3 3 1.3431 3 3-1.3431 3-3 3zm0-2c.5523 0 1-.4477 1-1s-.4477-1-1-1-1 .4477-1 1 .4477 1 1 1z"/></svg>
